X:1
T:Beautiful Homeland
T:George B. Holsinger
T:Beautiful Homeland
T:Public Domain
T:Public Domain
C:George B. Holsinger
Z:Public Domain
%%score ( 1 2 ) ( 3 4 )
L:1/8
M:6/8
K:F
V:1 treble 
V:2 treble 
V:3 bass 
V:4 bass 
V:1
 [Fc] | [Fc]>[Fd][Fc] [Fc][FA]F | [FA]C[CG] [CF]2 [FA] | [FB]>[FB][FB] [Fd][Fc][FB] | %4
w: 1.~A|ci- ty a- waits us we|shall be- hold, Whose walls|of jas- per, whose streets are|
w: 2.~The|friends that we love who have|on be- fore, Now wait|our com- ing on yon- der|
w: 3.~O|home- land, dear home- land! tho’|hath not seen, And some-|the sha- dow- y clouds in-|
 [FA][EG][F=B] [Ec]2 [Ec] | [Fc]>[Fd][Fc] [Fc][FA]F | [FA]C[CG] [CF]2 [_EA]/[EA]/ | %7
w: of gold; Not half of|its glo- ries have ev- er|told, Bless- èd home- land, dear|
w: bright shore, Where day nev-|er fades, tears may fall nev-|more, Bless- èd home- land, dear|
w: ter- vene, Thy light we’ll|be- hold, and thy pas- tures|green, Bless- èd home- land, dear|
 [DB]<[Fd][FB] [FA]<[Fc][GB] | [FA]>[CF][CG] [CF]2 ||"^Refrain" [Fc]/[Fc]/ | %10
w: land, sweet home of the soul.|Oh, I long, yes|I long|
w: land, sweet home of the soul.|||
w: land, sweet home of the soul.|||
 [Ec]>[EG][EG] [EG][FA][GB] | (F>FF [FA]2) [FA]/[FA]/ | [FA]>[FG][FG] [Fd][Ge][Fd] | %13
w: there to dwell, Mid the plea-|sures * * * no mor-|can tell, In the place our|
w: |||
w: |||
 (EEF [Gc]2) [Ec]/[Ec]/ | [Fc]>[Fd][Fc] [Fc][FA]F | [FA]C[CG] [B,F]2 [_EA]/[EA]/ | %16
w: dear * * * Sav- ior|gone to pre- pare, Bless- èd|land, dear home- land, sweet home|
w: |||
w: |||
 [DB]<[Fd][FB] [FA]<[Fc][GB] | [FA]>[CF][CG] [CF]2 |] %18
w: the soul. * * * *||
w: ||
w: ||
V:2
 x | x5 F | x C x4 | x6 | x6 | x5 F | x C x4 | x6 | x5 || x | x6 | A3- x3 | x6 | c3- x3 | x5 F | %15
w: |soon|are|||been|home-|||||tal||has|home-|
w: |gone|for|||er-|home-|||||||||
w: |eye|times|||so|home-|||||||||
 x C x4 | x6 | x5 |] %18
w: of|||
w: |||
w: |||
V:3
 [F,A,] | [F,A,]>[F,B,][F,A,] [F,A,][F,C][F,A,] | [C,C][C,A,][C,B,] [F,A,]2 [F,C] | %3
w: ~|~ ~ ~ ~ ~ ~|~ ~ ~ ~ ~|
 [B,,D]>[B,,D][B,,D] [B,,B,][B,,C][B,,D] | [F,C][G,C]G, [C,G,]2 [C,B,] | %5
w: ~ ~ ~ ~ ~ ~|~ ~ ~ ~ ~|
 [F,A,]>[F,B,][F,A,] [F,A,][F,C][F,A,] | [C,C][C,A,][C,B,] [F,A,]2 [F,C]/[F,C]/ | %7
w: ~ ~ ~ ~ ~ ~|~ ~ ~ ~ ~ ~|
 [B,,B,]<[B,,B,][B,,D] [F,C]<[F,A,][B,,D] | [C,C]>[C,A,][C,B,] [F,A,]2 || [F,A,]/[F,A,]/ | %10
w: ~ ~ ~ ~ ~ ~|~ ~ ~ ~|~ ~|
 [C,G,]>[C,C][C,C] [C,C][C,C][C,C] | [F,C]>[F,C][F,C] [F,C]2 [F,C]/[F,C]/ | %12
w: ~ ~ ~ ~ ~ ~|there to dwell ~ ~ ~|
 [G,=B,]>[G,B,][G,B,] [G,B,][G,B,][G,B,] | CG,A, [C,B,]2 [C,G,]/[C,G,]/ | %14
w: ~ ~ ~ ~ no mor-|tal can tell * * *|
 [F,A,]>[F,B,][F,A,] [F,A,][F,C][F,A,] | [C,C][C,A,][C,B,] [F,A,]2 [F,C]/[F,C]/ | %16
w: ||
 [B,,B,]<[B,,B,][B,,D] [F,C]<[F,A,][B,,D] | [C,C]>[C,A,][C,B,] [F,A,]2 |] %18
w: ||
V:4
 x | x6 | x6 | x6 | x2 G, x3 | x6 | x6 | x6 | x5 || x | x6 | x6 | x6 | C,3- x3 | x6 | x6 | x6 | %17
w: ||||~|||||||||||||
 x5 |] %18
w: |

